src/work/blix/blixmap/static/images/icon-createnew.svg

<svg height="28" viewBox="0 0 28 28" width="28" xmlns="http://www.w3.org/2000/svg"><path d="m12 12v-10.00875569c0-1.09134679.8954305-1.99124431 2-1.99124431 1.1122704 0 2 .89151044 2 1.99124431v10.00875569h10.0087557c1.0913468 0 1.9912443.8954305 1.9912443 2 0 1.1122704-.8915104 2-1.9912443 2h-10.0087557v10.0087557c0 1.0913468-.8954305 1.9912443-2 1.9912443-1.1122704 0-2-.8915104-2-1.9912443v-10.0087557h-10.00875569c-1.09134679 0-1.99124431-.8954305-1.99124431-2 0-1.1122704.89151044-2 1.99124431-2z" fill-rule="evenodd"/></svg>

<?xml version="1.0" encoding="UTF-8" standalone="no"?>
<svg width="28px" height="28px" viewBox="0 0 28 28" version="1.1" xmlns="http://www.w3.org/2000/svg" xmlns:xlink="http://www.w3.org/1999/xlink" xmlns:sketch="http://www.bohemiancoding.com/sketch/ns">
    <!-- Generator: Sketch 3.1.1 (8761) - http://www.bohemiancoding.com/sketch -->
    <title>Rectangle 1</title>
    <desc>Created with Sketch.</desc>
    <defs></defs>
    <g id="Page-1" stroke="none" stroke-width="1" fill="none" fill-rule="evenodd" sketch:type="MSPage">
        <path d="M12,12 L12,1.99124431 C12,0.899897516 12.8954305,0 14,0 C15.1122704,0 16,0.891510444 16,1.99124431 L16,12 L26.0087557,12 C27.1001025,12 28,12.8954305 28,14 C28,15.1122704 27.1084896,16 26.0087557,16 L16,16 L16,26.0087557 C16,27.1001025 15.1045695,28 14,28 C12.8877296,28 12,27.1084896 12,26.0087557 L12,16 L1.99124431,16 C0.899897516,16 5.48293048e-17,15.1045695 1.2246468e-16,14 C1.90571596e-16,12.8877296 0.891510444,12 1.99124431,12 L12,12 Z" id="Rectangle-1" fill="#000000" sketch:type="MSShapeGroup"></path>
    </g>
</svg>
